X:161
T:Gallant Blakeney
M:6/8
L:1/8
B:Thompson's Compleat Collection of 200 Favourite Country Dances, vol. 1 (London, 1757)
Z:Transcribed and edited by Flynn Titford-Mock, 2007
Z:abc's:AK/Fiddler's Companion
K:G
G3 d2c|BGB AFD|EGE AcA|F3 D3|G3 d2c|BGB AFD|E/F/GE AGF|G3 G,3:|
b3 g2b|afa geg|faf gbd|^c3 A3|afa bgb|afa geg|faf ed^c|d3 D3|
G3 d2c|BGB AFD|EGE AcA|F3 D3|G3 d2c|BGB AFD|EGE AFD|G3 G,3|]
|:BdB c2a|AcA B2g|EGE AcA|F3 D3|G3 d2c|BGB AFD|EGE F/G/AF|G3 G,3:|

